!!!COM:	Busnoys, Antoine
!!!CDT:	~1430///-1492/11/06
!!!OTL:	Amors nous traite / Je m'en voy
!!!AGN:	Song; Chanson
!!!SCT:	Bus3003
!!!SCA:	Bus3003
!!!voices:	4
**kern	**kern	**kern	**kern
*staff4	*staff3	*staff2	*staff1
*Ivox	*Ivox	*Ivox	*Ivox
*I"Tenor	*I"Tenor	*I"Tenor	*I"Superius
*I'T	*I'T	*I'T	*I'S
*clefF4	*clefGv2	*clefGv2	*clefG2
*k[b-]	*k[b-]	*k[b-]	*k[b-]
*M2/1	*M2/1	*M2/1	*M2/1
*met(C|)	*met(C|)	*met(C|)	*met(C|)
=1-	=1-	=1-	=1-
!	!LO:TX:Y=24:t=Amors	!	!LO:TX:Y=24:t=Amors nous traite
0r	0G	0r	0g
=2	=2	=2	=2
!	!	!LO:TX:Y=18:t=Je m'en voy	!
0r	1E-i	1B-	1g
.	1E-i	1c	1g
=3	=3	=3	=3
!LO:TX:Y=24:t=Je m'en voy	!	!	!
1F	1D	0d	1f
1G	1r	.	1b-
=4	=4	=4	=4
0A	0r	1c	1cc
.	.	1c	1cc
=5	=5	=5	=5
1G	1r	0d	1b-
1G	1G	.	2r
.	.	.	[2g
=6	=6	=6	=6
0A	0D	0r	2g]
.	.	.	4f#i
.	.	.	4e
.	.	.	1f#i
=7	=7	=7	=7
0r	1G	1d	1.g
.	2E	1c	.
.	2F	.	2a
=8	=8	=8	=8
1r	2D	1B-	1b-
.	1G	.	.
1A	.	1c	1a
.	2F#i	.	.
=9	=9	=9	=9
1G	1G	1B-	2b-
.	.	.	2.dd
1F	2r	1A	.
.	.	.	4cc
.	2c	.	2a
=10	=10	=10	=10
1G	2B-	1G	1b-
.	2.d	.	.
1F	.	1r	1a
.	4c	.	.
.	2A	.	.
=11	=11	=11	=11
1E	2B-	0r	2g
.	2G	.	1g
1D	1A	.	.
.	.	.	2f#i
=12	=12	=12	=12
0r	0G	0r	0g
=13	=13	=13	=13
0r	0G	0r	0g
=14	=14	=14	=14
0r	1E	1B-	1g
.	1E	1c	1g
=15	=15	=15	=15
1F	1D	0d	1f
1G	1r	.	1b-
=16	=16	=16	=16
0A	0r	1c	1cc
.	.	1c	1cc
=17	=17	=17	=17
1G	1r	0d	1b-
1G	1G	.	2r
.	.	.	[2g
=18	=18	=18	=18
0A	0D	0r	2g]
.	.	.	4f#i
.	.	.	4e
.	.	.	1f#i
=19	=19	=19	=19
0r	1G	1d	1.g
.	2E	1c	.
.	2F	.	2a
=20	=20	=20	=20
1r	2D	1B-	1b-
.	1G	.	.
1A	.	1c	1a
.	2F#i	.	.
=21	=21	=21	=21
1G	1G	1B-	2b-
.	.	.	2.dd
1F	2r	1A	.
.	.	.	4cc
.	2c	.	2a
=22	=22	=22	=22
1G	2B-	1G	1b-
.	2.d	.	.
1F	.	1r	1a
.	4c	.	.
.	2A	.	.
=23	=23	=23	=23
1E	2B-	0r	2g
.	2G	.	1g
1D	1A	.	.
.	.	.	2f#i
=24	=24	=24	=24
0r	1G	1B-	0g
.	1E	1c	.
=25	=25	=25	=25
1F	1D	0d	1r
1G	1r	.	1g
=26	=26	=26	=26
0A	0c	0r	1e
.	.	.	1e
=27	=27	=27	=27
0r	1d	0d	1.f
.	1f	.	.
.	.	.	4e
.	.	.	4d
=28	=28	=28	=28
0A	1.e	0r	2c
.	.	.	2.cc
.	.	.	4b-
.	[2f	.	[2a
=29	=29	=29	=29
0r	2f]	0d	2a]
.	4e	.	4g
.	4d	.	4f
.	2.f	.	2.a
.	4e	.	4g
=30	=30	=30	=30
0A	2c	0r	2e
.	1d	.	2d
.	.	.	1e
.	2c#i	.	.
=31	=31	=31	=31
0r	2d	1d	2d
.	2G	.	2B-
.	1A	1c	2A
.	.	.	[2a
=32	=32	=32	=32
0r	1E	1B-	2a]
.	.	.	2g
.	1e	1A	1a
=33	=33	=33	=33
1A	0r	1c	2e
.	.	.	2f
1G	.	2.B-	2g
.	.	.	[2e
.	.	4G	.
=34	=34	=34	=34
1F	1r	1A	2e]
.	.	.	2d
1E	2r	1G	2e
.	[2e	.	[2g
=35	=35	=35	=35
1G	4e]	0r	4g]
.	4d	.	4f
.	2Bn	.	2d
2.F	2c	.	2r
.	2d	.	[2a
4D	.	.	.
=36	=36	=36	=36
1E	1G	0r	4a]
.	.	.	4g
.	.	.	2.g
1D	1A	.	.
.	.	.	4e
.	.	.	2f#i
=37	=37	=37	=37
0r	3%2.GV	1B-	0g
.	3F	1c	.
.	3%2EZ	.	.
=38	=38	=38	=38
1F	3%2.DV	0d	0r
1G	3C	.	.
.	3%2BB-Z	.	.
=39	=39	=39	=39
0A	1.AA	0r	0a
.	[2D	.	.
=40	=40	=40	=40
0r	4D]	0d	1f
.	4E	.	.
.	2F	.	.
.	2D	.	1f
.	[2d	.	.
=41	=41	=41	=41
0A	2d]	0r	1e
.	4c#i	.	.
.	4Bni	.	.
.	1c#i	.	1e
=42	=42	=42	=42
0r	2d	0d	2d
.	2f	.	2a
.	2B-	.	2b-
.	[2f	.	[2dd
=43	=43	=43	=43
0A	2f]	0r	2dd]
.	4e	.	4cc#i
.	4d	.	4bni
.	1e	.	1cc#i
=44	=44	=44	=44
0r	2d	1d	2dd
.	2D	.	1b-
.	2E	1c	.
.	2F	.	2a
=45	=45	=45	=45
1r	1G	1B-	2b-
.	.	.	2g
1A	2r	1c	1a
.	2F	.	.
=46	=46	=46	=46
1G	1G	2.B-	2b-
.	.	.	2.dd
.	.	4G	.
1F	1D	1A	.
.	.	.	4cc
.	.	.	4b-
.	.	.	4a
=47	=47	=47	=47
1G	2r	1G	2b-
.	1d	.	4a
.	.	.	4g
2.F	.	1r	2.a
.	4c	.	.
4D	4B-	.	4g
=48	=48	=48	=48
1E	4c	0r	2g
.	4B-	.	.
.	4A	.	4f#i
.	4G	.	4e
1D	2.A	.	2.f#i
.	4c	.	4e
=49	=49	=49	=49
0r	1G	1B-	1g
.	1A	1c	1r
=50	=50	=50	=50
1F	1D	0d	1a
1G	1r	.	1b-
=51	=51	=51	=51
0A	0r	1c	1cc
.	.	1c	1cc
=52	=52	=52	=52
1G	1r	0d	1b-
1G	1BB-	.	1dd
=53	=53	=53	=53
0A	2.AA	0r	1.cc
.	4BB-	.	.
.	2C	.	.
.	[2D	.	[2f
=54	=54	=54	=54
0r	4D]	1d	4f]
.	4E	.	4g
.	2.F	.	2.a
.	.	1c	.
.	4G	.	4g
.	2A	.	2e
=55	=55	=55	=55
1r	2B-	1B-	1d
.	1G	.	.
1A	.	1c	1r
.	2F#i	.	.
=56	=56	=56	=56
1G	1G	1B-	1g
1F	2r	1A	1a
.	2c	.	.
=57	=57	=57	=57
1G	2B-	1G	1b-
.	4A	.	.
.	4G	.	.
1F	2d	1r	1a
.	2c	.	.
=58	=58	=58	=58
1E	4c	0r	1g
.	4B-	.	.
.	4A	.	.
.	4G	.	.
1D	2.F#i	.	1a
.	8EL	.	.
.	8F#iJ	.	.
=59	=59	=59	=59
0r	2G	1B-	1g
.	1E	.	.
.	.	1c	[1a
.	2F	.	.
=60	=60	=60	=60
1F	1D	0d	2a]
.	.	.	4g
.	.	.	4a
1G	1r	.	2b-
.	.	.	4a
.	.	.	4g
=61	=61	=61	=61
0A	0r	1c	2f#i
.	.	.	2e
.	.	1c	1f#i
=62	=62	=62	=62
1G	1r	0d	2g
.	.	.	2r
1G	[1G	.	1b-
=63	=63	=63	=63
0A	2G]	0r	1.cc
.	4F#i	.	.
.	4E	.	.
.	1F#i	.	.
.	.	.	4b-
.	.	.	4a
=64	=64	=64	=64
0r	2G	1d	1b-
.	4F	.	.
.	4G	.	.
.	4A	1c	1cc
.	4G	.	.
.	4F	.	.
.	4E	.	.
=65	=65	=65	=65
1r	2D	1B-	1dd
.	2.G	.	.
1A	.	1c	2cc
.	4E	.	.
.	2F#i	.	2a
=66	=66	=66	=66
1G	2G	1B-	2b-
.	2.d	.	2g
1F	.	1A	2r
.	4c	.	.
.	2A	.	2cc
=67	=67	=67	=67
1G	2B-	1G	2b-
.	2e-i	.	4a
.	.	.	4g
1F	2d	1r	2b-
.	[2c	.	[2a
=68	=68	=68	=68
1E	4c]	1r	4a]
.	4B-	.	4g
.	2G	.	1g
1D	1A	1d	.
.	.	.	2f#i
=69	=69	=69	=69
1r	[0Gl	[0dl	[0gl
1G	.	.	.
=70	=70	=70	=70
0Gl	0G]	0d]	0g]
==	==	==	==
*-	*-	*-	*-
!!!RDF**kern: l=long note in original notation
!!!RDF**kern: i=editorial accidental
!!!RDF**kern: V=start of tuplet marker
!!!RDF**kern: Z=end of tuplet marker
!!!ENC:	Chris Gage 04-02-2015
!!!END:	2015/05/01/
!!!EED:	Jesse Rodin
!!!EEV:	2015/06/10/
!!!ONB:	Translated from MusicXML and edited on 2015/05/10/ by Craig Sapp
!!muse2ps: C^@{COM}^i2I150v85,85,85,150Q16
